tools/download-figma-icons/icons/solid/tenant.svg

<svg width="24" height="25" viewBox="0 0 24 25" fill="none" xmlns="http://www.w3.org/2000/svg">
<path fill-rule="evenodd" clip-rule="evenodd" d="M15.8775 18.5794H8.31C7.83 18.5794 7.47825 18.1294 7.5975 17.6644L8.1375 15.4519C8.4375 14.2444 9.45 13.3669 10.6657 13.1944C9.92325 12.7144 9.4275 11.8894 9.4275 10.9444C9.4275 9.4669 10.62 8.2744 12.0975 8.2744C13.5675 8.2744 14.76 9.4669 14.76 10.9444C14.76 11.8894 14.265 12.7144 13.5225 13.1944C14.7375 13.3669 15.75 14.2444 16.0432 15.4519L16.59 17.6644C16.71 18.1294 16.3582 18.5794 15.8775 18.5794ZM22.1925 8.41687L20.8725 7.24688V3.11438C20.8725 2.70188 20.535 2.36437 20.115 2.36437H16.8825C16.4858 2.36437 16.155 2.67938 16.1325 3.06938L13.05 0.354375C12.5025 -0.118125 11.685 -0.118125 11.1375 0.354375L1.995 8.41687C1.68 8.68688 1.5 9.09188 1.5 9.51188V22.5469C1.5 23.3494 2.1525 24.0011 2.955 24.0011H21.2332C22.035 24.0011 22.6875 23.3494 22.6875 22.5469V9.51188C22.6875 9.09188 22.5075 8.69438 22.1925 8.41687Z" fill="black"/>
</svg>

<svg xmlns="http://www.w3.org/2000/svg" width="24" height="25" fill="none" viewBox="0 0 24 25"><path fill="currentColor" fill-rule="evenodd" d="M15.878 18.58H8.31a.733.733 0 0 1-.713-.916l.54-2.212a3.03 3.03 0 0 1 2.529-2.258 2.666 2.666 0 1 1 2.857 0c1.215.173 2.227 1.05 2.52 2.258l.547 2.212a.733.733 0 0 1-.713.915m6.314-10.163-1.32-1.17V3.114a.754.754 0 0 0-.757-.75h-3.232a.755.755 0 0 0-.75.705L13.05.354a1.47 1.47 0 0 0-1.913 0L1.995 8.417c-.315.27-.495.675-.495 1.095v13.035c0 .802.652 1.454 1.455 1.454h18.278c.802 0 1.454-.652 1.454-1.454V9.512c0-.42-.18-.818-.495-1.095" clip-rule="evenodd"/></svg>
